!!!!SEGMENT: pl-wtm--r-131-m--001-005_moniuszko-stanislaw--msza-swieta-slowa-odynca-sanctus.krn
!!!cenid: 18xx:1728
!!!COM: Moniuszko, Stanisław
!!!COM-rismID: pe30008351
!!!CDT: 1819/05/05-1872/06/04
!!!CNT: Polish
!!!OPR: Msza święta słowa Odyńca
!!!OTL: Sanctus
!!!OMV: 005
!!!PDT:
!!!AGN: Sacred; Mass
!!!SMS-siglum: PL-Wtm
!!!SMS-shelfmark: R 131/M
!!!SMS-shelfwork: 001-005 M
!!!SMS-variant:
!!!SMS-altvar:
!!!NIFC-rismSourceID: 1001097550
!!!NIFC-rismChildID: 1001097550
!!!NIFC-islandoraID:
!!!URL-pdf-islandora:
!!!URL-scan:
!!!IIIF:
!!!ONB-nifc: UWAGA: części Mszy: 1. Kyrie, 2. Gloria, 3. Graduale, 4. Credo, 5. Sanctus, 6. Benedictus, 7. Agnus
!!!AIN: 1 bass 1 empty 1 organ 1 viola 2 violn
!!!key:
**kern	**kern	**dynam	**kern	**dynam	**kern	**dynam	**kern	**dynam	**kern	**dynam	**kern	**dynam
*part6	*part6	*part6	*part5	*part5	*part4	*part4	*part3	*part3	*part2	*part2	*part1	*part1
*staff7	*staff6	*	*staff5	*	*staff4	*	*staff3	*	*staff2	*	*staff1	*
*group	*group	*	*group1	*	*group1	*	*group1	*	*group1	*	*group1	*
*Iorgan	*Iorgan	*	*Ibass	*	*Iempty	*	*Iviola	*	*Ivioln	*	*Ivioln	*
*I"Organ.	*I"Organ.	*	*I"CB.	*	*I"Volc.	*	*I"Vla.	*	*I"V. 2.	*	*I"V. 1.	*
*I'org	*I'org	*	*I'cb	*	*I'vlc	*	*I'vla	*	*I'vl 2	*	*I'vl 1	*
*clefF4	*clefG2	*	*clefF4	*	*clefF4	*	*clefC3	*	*clefG2	*	*clefG2	*
*	*	*	*Trd0c0	*	*	*	*	*	*	*	*	*
*k[f#c#]	*k[f#c#]	*	*k[f#c#]	*	*k[f#c#]	*	*k[f#c#]	*	*k[f#c#]	*	*k[f#c#]	*
*D:	*D:	*	*D:	*	*D:	*	*D:	*	*D:	*	*D:	*
*M2/2	*M2/2	*	*M2/2	*	*M2/2	*	*M2/2	*	*M2/2	*	*M2/2	*
*met(c|)	*met(c|)	*	*met(c|)	*	*met(c|)	*	*met(c|)	*	*met(c|)	*	*met(c|)	*
=1	=1	=1	=1	=1	=1	=1	=1	=1	=1	=1	=1	=1
*	*	*	*	*	*2\right	*	*	*	*	*	*2\right	*
!	!	!	!	!	!	!	!	!	!	!	!LO:TX:a:i:t=allegro.	!
!	!	!	!	!	!	!	!	!	!	!	!LO:TX:a:i:t=Sanctus.	!
!LO:TX:t=P:problem=w źródle brak znaków i klucza	!LO:TX:t=P:problem=w źródle brak znaków i klucza	!	!	!	!LO:TX:t=P:problem=w źródle znaki przeykluczowe F# C#	!	!LO:TX:t=P:problem=w źródle znaki przeykluczowe F# c#	!	!LO:TX:t=P:problem=w źródle znaki f# cc# zapisane jako powtórzenie vl 1 (partia powyższa)	!	!LO:TX:t=P:problem=w źródle znaki przykluczowe f# cc#	!
!	!	!	!	!	!	!	!	!LO:DY:rj	!	!LO:DY:rj	!	!
1ryy	1ryy	.	1r	.	2B\	ff	2B/	ff	2b 2d/	ff	2dd 2f#\	ff
.	.	.	.	.	4B\	.	4B\	.	4f#/	.	4dd\	.
.	.	.	.	.	8c#\L	.	8c#\L	.	8f#/L	.	8cc#\L	.
.	.	.	.	.	8d\J	.	8d\J	.	8f#/J	.	8b\J	.
=2	=2	=2	=2	=2	=2	=2	=2	=2	=2	=2	=2	=2
*	*	*	*	*	*	*	*2\right	*	*	*	*	*
1ryy	1ryy	.	1r	.	2c#\	.	2e\	.	2f#/	.	2b\	.
.	.	.	.	.	8c#\	.	8e\	.	8f#/	.	8a#X\	.
.	.	.	.	.	8r	.	8r	.	8r	.	8r	.
.	.	.	.	.	4c#\	.	4e\	.	4f#/	.	4a#\	.
=3	=3	=3	=3	=3	=3	=3	=3	=3	=3	=3	=3	=3
1ryy	1ryy	.	1r	.	4d\	.	2d\	.	2f#/	.	(>4b\	.
.	.	.	.	.	4B\	.	.	.	.	.	4dd\	.
.	.	.	.	.	4c#\	.	4e\	.	4f#/	.	4cc#\	.
.	.	.	.	.	4d\	.	4f#\	.	4f#/	.	4b\)	.
=4	=4	=4	=4	=4	=4	=4	=4	=4	=4	=4	=4	=4
1ryy	1ryy	.	1ryy	.	2c#^>\	.	2e^>\	.	2gn^</	.	2b^>\	.
.	.	.	.	.	8c#\	.	8e\	.	8e/	.	8a\	.
.	.	.	.	.	8r	.	8r	.	8r	.	8r	.
.	.	.	.	.	4r	.	4a\	.	4a/	.	4a/	.
=5	=5	=5	=5	=5	=5	=5	=5	=5	=5	=5	=5	=5
1ryy	1ryy	.	1r	.	2B^>\	.	2B^</	.	2a 2f#^</	.	2dd 2d^</	.
.	.	.	.	.	4.A^>\	.	4.A^</	.	4.cc# 4.e^>/	.	4.ee 4.a^^>\	.
.	.	.	.	.	8A\	.	8A/	.	8a/	.	8a/	.
=6	=6	=6	=6	=6	=6	=6	=6	=6	=6	=6	=6	=6
!	!	!	!	!LO:DY:rj	!	!	!	!	!LO:DY:b	!	!	!
1D 1DD	1ff# 1dd 1a 1f#	.	1D	sff	1A 1D	ff	1a 1f#	ff	8ff#L 8a 8d/	.	8ff#L 8a 8d\	.
.	.	.	.	.	.	.	.	.	8aa/	.	8aa\	.
.	.	.	.	.	.	.	.	.	8ff#/	.	8ff#\	.
.	.	.	.	.	.	.	.	.	8ee/J	.	8ee\J	.
.	.	.	.	.	.	.	.	.	8dd/L	.	8dd/L	.
.	.	.	.	.	.	.	.	.	8a/	.	8a/	.
.	.	.	.	.	.	.	.	.	8f#/	.	8f#/	.
.	.	.	.	.	.	.	.	.	8d/J	.	8d/J	.
!!LO:LB:g=original
=7	=7	=7	=7	=7	=7	=7	=7	=7	=7	=7	=7	=7
*	*^	*	*	*	*	*	*	*	*	*	*	*
[>1D [<1DD	2ff#/	1b 1g	.	1D^^>	.	8D\	.	8r	.	2.b 2.g^^>/	.	2ff# 2dd^^>\	.
.	.	.	.	.	.	8B\L	.	8B/L	.	.	.	.	.
.	.	.	.	.	.	8c#\	.	8c#/	.	.	.	.	.
.	.	.	.	.	.	8d\J	.	8d/J	.	.	.	.	.
.	[>2ee/	.	.	.	.	8e\L	.	8e/L	.	.	.	2ee 2dd^^>\	.
.	.	.	.	.	.	8E\	.	8E/	.	.	.	.	.
.	.	.	.	.	.	8F#\	.	8F#/	.	4a 4g/	.	.	.
.	.	.	.	.	.	8G\J	.	8G/J	.	.	.	.	.
=8	=8	=8	=8	=8	=8	=8	=8	=8	=8	=8	=8	=8	=8
1D_> 1DD_>	2ee/]	1a 1f#	.	1D^^>	.	8D\	.	8r	.	2a 2f#/	.	2ee 2a^^>\	.
.	.	.	.	.	.	8A\L	.	8A/L	.	.	.	.	.
.	.	.	.	.	.	8B\	.	8B/	.	.	.	.	.
.	.	.	.	.	.	8c#\J	.	8c#/J	.	.	.	.	.
!	!	!	!	!	!	!	!	!LO:TX:t=P:problem=mixed beam	!	!	!	!	!
.	2dd/	.	.	.	.	8d\L	.	8d\L	.	4b/	.	4dd/	.
.	.	.	.	.	.	8D\	.	8D/	.	.	.	.	.
.	.	.	.	.	.	8E\	.	8E/	.	4a 4d/	.	4dd 4d/	.
.	.	.	.	.	.	8F#\J	.	8F#/J	.	.	.	.	.
=9	=9	=9	=9	=9	=9	=9	=9	=9	=9	=9	=9	=9	=9
*2\right	*2\right	*2\right	*	*	*	*	*	*	*	*	*	*	*
1D] 1DD]	4.dd/	2.g 2.e\	.	1D^^>	.	8r	.	8r	.	4.g 4.G^</	.	4.dd 4.e^</	.
.	.	.	.	.	.	8G\L	.	8G/L	.	.	.	.	.
.	.	.	.	.	.	8A\	.	8A/	.	.	.	.	.
.	8ccn/	.	.	.	.	8B\J	.	8B/J	.	8g 8G/	.	8ccn 8e/	.
.	4cc/	.	.	.	.	8cn\L	.	8cn/L	.	4g 4G/	.	4cc 4e/	.
.	.	.	.	.	.	8B\	.	8B/	.	.	.	.	.
.	4ee 4cc 4e/	4rFyy	.	.	.	8A\	.	8A/	.	4ccn 4e/	.	4ee 4cc\	.
.	.	.	.	.	.	8G\J	.	8G/J	.	.	.	.	.
*	*v	*v	*	*	*	*	*	*	*	*	*	*	*
=10	=10	=10	=10	=10	=10	=10	=10	=10	=10	=10	=10	=10
*^	*	*	*	*	*	*	*	*	*	*	*	*
*	*	*	*	*	*	*	*	*	*	*2\right	*	*	*
!	!	!LO:SIC:s:v=ccn	!	!	!	!	!	!	!	!	!	!	!
2D/	[<2DD/	1ee 1cc# 1a	.	2D/	.	8F#\L	.	8F#/L	.	2ccn\	.	2ee 2a\	.
.	.	.	.	.	.	8G\	.	8G/	.	.	.	.	.
.	.	.	.	.	.	8F#\	.	8F#/	.	.	.	.	.
.	.	.	.	.	.	8E\J	.	8E/J	.	.	.	.	.
8D/L	8DD\]	.	.	8D/L	.	8D/L	.	8D/	.	8d/	.	8dd\	.
8Cn/	8rAAAyy	.	.	8Cn/	.	8Cn/	.	8r	.	8r	.	8ryy	.
8BB/	4rAAAyy	.	.	8BB/	.	8BB/	.	8d\	.	8dd 8d/	.	8dd 8d/	.
8AA/J	.	.	.	8AA/J	.	8AA/J	.	8r	.	8r	.	8r	.
=11	=11	=11	=11	=11	=11	=11	=11	=11	=11	=11	=11	=11	=11
4.G 4.D 4.GG/	4.GG\	4.gg 4.b 4.g/	.	4.GG^</	.	4.GG^</	.	4b 4d 4G^</	.	8ggL 8b 8d^</	.	8ggL 8b 8d^</	.
.	.	.	.	.	.	.	.	.	.	8dd/	.	8dd/	.
.	.	.	.	.	.	.	.	8r	.	8b/	.	8b/	.
8G 8D 8GG/	8GG\	8dd 8b 8g/	.	8G\	.	8G\	.	8g\	.	8ee/J	.	8ee/J	.
4G 4D 4GG/	4GG\	4dd/ 4b/ 4g/	.	4G\	.	4G\	.	8g\L	.	8dd/L	.	4dd/	.
.	.	.	.	.	.	.	.	8d\	.	8d/	.	.	.
!LO:N:vis=4.	!	!	!	!	!	!	!	!	!	!	!	!	!
4r	4rCCyy	4ccn 4a 4d/	.	4ryy	.	4r	.	8e\	.	8e/	.	4ccn 4d/	.
.	.	.	.	.	.	.	.	8f#\J	.	8f#/J	.	.	.
=12	=12	=12	=12	=12	=12	=12	=12	=12	=12	=12	=12	=12	=12
4.G/	4GG/	4.b 4.g 4.d/	.	4.G^>\	.	4.G 4.GG^</	.	8g\L	.	8g/L	.	4b 4d 4G/	.
.	.	.	.	.	.	.	.	8d\	.	8d/	.	.	.
.	8rCCyy	.	.	.	.	.	.	8B\	.	8B/	.	8r	.
8D/	8D\	8b 8g 8d/	.	8D\	.	8D/	.	8e\J	.	8d/J	.	8b 8d/	.
4D/	4D\	4b 4g 4d/	.	4D\	.	4D/	.	4d\	.	4g/	.	8bL 8d/	.
.	.	.	.	.	.	.	.	.	.	.	.	8dd/	.
4Cn/	4Cn\	4a 4f# 4d/	.	4Cn/	.	4Cn/	.	4A/	.	4d/	.	8f#/	.
.	.	.	.	.	.	.	.	.	.	.	.	8a/J	.
*v	*v	*	*	*	*	*	*	*	*	*	*	*	*
!!LO:PB:g=original
=13	=13	=13	=13	=13	=13	=13	=13	=13	=13	=13	=13	=13
*	*^	*	*	*	*	*	*	*	*	*	*	*
(<4BB/	(>4g/	2d\	.	4BB/	.	1ryy	.	1ryy	.	8g/L	.	8g/L	.
.	.	.	.	.	.	.	.	.	.	8d/	.	8d/J	.
4AA/	4a/	.	.	4AA/	.	.	.	.	.	8f#/	.	8a/L	.
.	.	.	.	.	.	.	.	.	.	8d/J	.	8d/J	.
2GG/)	4b/	4g\	.	4GG/	.	.	.	.	.	8g/L	.	8b/L	.
.	.	.	.	.	.	.	.	.	.	8d/	.	8d/J	.
.	4ccn/)	4a 4g\	.	4GG/	.	.	.	.	.	8a/	.	8ccn/L	.
.	.	.	.	.	.	.	.	.	.	8d/J	.	8d/J	.
=14	=14	=14	=14	=14	=14	=14	=14	=14	=14	=14	=14	=14	=14
*^	*	*	*	*	*	*	*	*	*	*	*	*	*
2G\ 2GG\	2rAAAyy	2dd\ 2bn\	1g	.	2GG/	.	1ryy	.	2ryy	.	2b/	.	8dd/L	.
.	.	.	.	.	.	.	.	.	.	.	.	.	8d/	.
.	.	.	.	.	.	.	.	.	.	.	.	.	8g/	.
.	.	.	.	.	.	.	.	.	.	.	.	.	8dd/J	.
4G/	2rEE	4dd 4b-X 4g/	.	.	4G\	.	.	.	4ryy	.	4b-X 4d/	.	4dd\	.
4Cn/	.	4ee 4cc# 4g/	.	.	4Cn/	.	.	.	4cn\	.	4b- 4g 4G/	.	4ee 4b-X 4g\	.
*	*	*v	*v	*	*	*	*	*	*	*	*	*	*	*
=15	=15	=15	=15	=15	=15	=15	=15	=15	=15	=15	=15	=15	=15
4.Fn 4.Cn 4.FFn/	4.FFn\	4.ffn 4.a 4.fn/	.	4.FFn/	.	1ryy	.	4.cn 4.Cn/	.	8a/L	.	8ffnL 8a\	.
.	.	.	.	.	.	.	.	.	.	8ccn/	.	8ccn\	.
.	.	.	.	.	.	.	.	.	.	8a/	.	8a\	.
8F 8C 8FF/	8FF\	8ccn 8a 8f/	.	8FF/	.	.	.	8A 8C/	.	8dd/J	.	8dd\J	.
4F 4C 4FF/	4FF\	4cc 4a 4f/	.	4FF/	.	.	.	4A 4C/	.	8g/L	.	4cc\	.
.	.	.	.	.	.	.	.	.	.	8cn/	.	.	.
4C/	4C\	4b-X 4g/	.	4FF/	.	.	.	4A 4C/	.	8d/	.	4b-X 4g/	.
.	.	.	.	.	.	.	.	.	.	8e/J	.	.	.
=16	=16	=16	=16	=16	=16	=16	=16	=16	=16	=16	=16	=16	=16
4.Fn/	4.Fn\	4.a 4.fn 4.cn/	.	4.Fn^^>\	.	1ryy	.	4.Fn^</	.	8fn/L	.	4.a 4.fn/	.
.	.	.	.	.	.	.	.	.	.	8cn/	.	.	.
.	.	.	.	.	.	.	.	.	.	8A/	.	.	.
8Cn/	8Cn\	8a 8f 8c/	.	8Cn/	.	.	.	8Cn/	.	8c/J	.	8a 8f/	.
4C/	4C\	4a 4f 4c/	.	4C/	.	.	.	4C/	.	4f/	.	8aL 8f/	.
!	!	!	!	!	!	!	!	!	!	!	!	!LO:SIC:s:v=ccn	!
.	.	.	.	.	.	.	.	.	.	.	.	8cc#/J	.
4B-X\	4BB-X\	4g 4e 4c/	.	4B-X\	.	.	.	4B-X/	.	4c/	.	8e/L	.
.	.	.	.	.	.	.	.	.	.	.	.	8g/J	.
=17	=17	=17	=17	=17	=17	=17	=17	=17	=17	=17	=17	=17	=17
*	*	*^	*	*	*	*	*	*	*	*	*	*	*
4A 4AA/	4AA\	4fn [<4cn/	2rDyy	.	4A\	.	1ryy	.	4A/	.	8A/L	.	4fn/	.
.	.	.	.	.	.	.	.	.	.	.	8cn/	.	.	.
4G/	4GG\	4g 4e 4c/]	.	.	4G\	.	.	.	4G/	.	8e/	.	4a/	.
.	.	.	.	.	.	.	.	.	.	.	8c/J	.	.	.
4Fn 4FFny/	4FFny\	8a/L	4fn\	.	4Fn\	.	.	.	4Fn/	.	4fn/	.	8a/L	.
.	.	8b/	.	.	.	.	.	.	.	.	.	.	8b/	.
4F/	4FFn\	8ccn/	4a\	.	4F\	.	.	.	4fn\	.	4a/	.	8ccn/	.
.	.	8dd/J	.	.	.	.	.	.	.	.	.	.	8dd/J	.
*	*	*v	*v	*	*	*	*	*	*	*	*	*	*	*
=18	=18	=18	=18	=18	=18	=18	=18	=18	=18	=18	=18	=18	=18
!	!	!	!	!	!	!	!	!	!	!	!	!	!LO:HP:b
4.E/	4EE\	1ee 1e	.	4E\	.	4.E\	.	8r	.	8g#X/L	.	1ee	>]
!	!	!	!	!	!	!	!LO:HP:b	!	!	!	!	!	!
.	.	.	.	.	.	.	>	8e/L	.	8e/	.	.	.
.	4rDD	.	.	4r	.	.	.	8d/	>	8d/	.	.	.
!	!	!	!	!	!	!	!	!	!	!	!LO:HP:b	!	!
8D/	.	.	.	.	.	8D\	.	8B/J	.	8B/J	>	.	.
4C#X/	2r	.	.	2rGG	.	4C#X/	.	8A/	.	8A/	.	.	.
.	.	.	.	.	.	.	.	8A/L	.	8A/L	.	.	.
4AA/	.	.	.	.	.	4AA/	]]	8B/	.	8B/	.	.	.
.	.	.	.	.	.	.	.	8c#X/J	]	8c#X/J	]	.	.
!!LO:LB:g=original
=19	=19	=19	=19	=19	=19	=19	=19	=19	=19	=19	=19	=19	=19
*	*^	*^	*	*	*	*	*	*	*	*	*	*	*
!	!	!	!	!	!	!	!	!	!	!	!	!	!LO:DY:b	!	!LO:DY:b
!	!	!	!	!	!LO:DY:b:rj	!	!	!	!LO:DY:b:rj	!	!	!	!	!	!
2B/	1E	1rGG	2g#X/	1e	p	4E\	.	2EE/	p	(>8d\L	p	(<8d/L	p	2ee\	p
.	.	.	.	.	.	.	.	.	.	8e\	.	8e/	.	.	.
.	.	.	.	.	.	4r	.	.	.	8f#\	.	8f#/	.	.	.
.	.	.	.	.	.	.	.	.	.	8g#X\J)	.	8g#X/J)	.	.	.
!	!	!	!	!	!	!LO:N:vis=1	!	!	!	!	!	!	!	!	!
4A/	.	.	2a/	.	.	2rD	.	2E\	.	(>8a\L	.	(<8a/L	.	4cc#\	.
.	.	.	.	.	.	.	.	.	.	8e\	.	8e/	.	.	.
4c#X/	.	.	.	.	.	.	.	.	.	8c#\	.	8c#/	.	4a/	.
.	.	.	.	.	.	.	.	.	.	8e\J)	.	8e/J)	.	.	.
*	*v	*v	*	*	*	*	*	*	*	*	*	*	*	*	*
=20	=20	=20	=20	=20	=20	=20	=20	=20	=20	=20	=20	=20	=20	=20
!	!	!	!	!	!LO:N:vis=2	!	!	!	!	!	!	!	!	!
!LO:TX:a:t=P:problem=takt poprawiany przez głównego skryptora; przed poprawieniem były dodatkowe warstwe z dźwiękami 2B/ 2C#/ 2A/	!	!	!	!	!	!	!	!	!	!	!	!	!	!
2E\	1rGG	2g#X/	1ryy	.	1rD	.	2E\	.	(>8d\L	.	(<8d/L	.	4g#X/	.
.	.	.	.	.	.	.	.	.	8f#\	.	8f#/	.	.	.
.	.	.	.	.	.	.	.	.	8e\	.	8e/	.	4b/	.
.	.	.	.	.	.	.	.	.	8d\J)	.	8d/J)	.	.	.
!	!	!	!	!	!	!	!	!	!LO:TX:a:t=P:problem=nuta poprawiona przez głównego skryptora; przed poprawieniem było 2b\	!	!	!	!	!
4F#\	.	8a/L	.	.	.	.	4F#\	.	4c#\	.	4c#/	.	8a/L	.
.	.	8g#/	.	.	.	.	.	.	.	.	.	.	8g#/	.
4C#/	.	8f#/	.	.	.	.	4C#\	.	4A/	.	4A/	.	8f#/	.
.	.	8e/J	.	.	.	.	.	.	.	.	.	.	8e/J	.
*v	*v	*	*	*	*	*	*	*	*	*	*	*	*	*
=21	=21	=21	=21	=21	=21	=21	=21	=21	=21	=21	=21	=21	=21
2B/	2g#X/	1e	.	4E\	.	2E\	.	(>8d\L	.	(<8d/L	.	2ee\	.
.	.	.	.	.	.	.	.	8e\	.	8e/	.	.	.
.	.	.	.	4r	.	.	.	8f#\	.	8f#/	.	.	.
.	.	.	.	.	.	.	.	8g#X\J)	.	8g#X/J)	.	.	.
4A/	2a/	.	.	2r	.	4E\	.	(>8a\L	.	(<8a/L	.	4cc#\	.
.	.	.	.	.	.	.	.	8e\	.	8e/	.	.	.
4c#X/	.	.	.	.	.	4E\	.	8c#\	.	8c#/	.	4a\	.
.	.	.	.	.	.	.	.	8e\J)	.	8e/J)	.	.	.
*	*v	*v	*	*	*	*	*	*	*	*	*	*	*
=22	=22	=22	=22	=22	=22	=22	=22	=22	=22	=22	=22	=22
*^	*	*	*	*	*	*	*	*	*	*	*	*
!	!	!	!	!	!	!	!	!LO:TX:t=P:problem=mixed beam	!	!	!	!	!
2E\	1rEE	(<4g#X/	.	1rD	.	2E\	.	(>8d\L	.	8d/L	.	(<4g#X/	.
.	.	.	.	.	.	.	.	8f#\	.	8f#/	.	.	.
.	.	4b/	.	.	.	.	.	8e\	.	8e/	.	4b/	.
.	.	.	.	.	.	.	.	8E/J)	.	8d/J	.	.	.
8A\L	.	4a/)	.	.	.	8A\L	.	8A/L	.	8c#/L	.	4a/)	.
8G#X\	.	.	.	.	.	8G#X\	.	8G#X/	.	8e/J	.	.	.
8F#\	.	4a/	.	.	.	8F#\	.	8F#/	.	4a/	.	4a/	.
*ped	*	*	*	*	*	*	*	*	*	*	*	*	*
8E\J	.	.	.	.	.	8E\J	.	8E/J	.	.	.	.	.
=23	=23	=23	=23	=23	=23	=23	=23	=23	=23	=23	=23	=23	=23
*	*	*^	*	*	*	*	*	*	*	*^	*	*^	*
!	!	!	!	!	!	!	!	!	!	!	!	!	!	!	!LO:TX:a:t=P:problem=nuta poprawiona przez głównego skryptora; przed poprawieniem był to dźwięk 2d\	!
!	!	!	!	!	!LO:TX:a:t=P:problem=takt poprawiony przez głównego skryptora; przed poprawieniem było 8D\L 8C#\ 8D\ 8E\J 8F#\L 8 8Gn\ / 8E\ 8A\ / 8F# 8B\ / 8G#J	!	!	!	!	!	!	!	!	!	!	!
8D/L	1DD	2aa 2ff#/	1a	.	1D	.	8D\L	.	8D/L	.	2ff# 2a\	4d\	.	2aa 2a^^>\	4d\	.
8C#/	.	.	.	.	.	.	8C#\	.	8C#/	.	.	.	.	.	.	.
8D/	.	.	.	.	.	.	8D\	.	8D/	.	.	4rAyy	.	.	4rAyy	.
8E/J	.	.	.	.	.	.	8E\J	.	8E/J	.	.	.	.	.	.	.
!LO:TX:a:t=P:problem=nuta poprawiana przez głównego skryptora; przed poprawieniem był dźwięk 4F#\	!	!	!	!	!	!	!	!	!	!	!	!	!	!	!	!
8F#/L	.	4gg#X 4ee/	.	.	.	.	8F#\L	.	8F#/L	.	4ee 4a^^>\	2rAyy	.	4gg#X 4a^^>/	2rFyy	.
!	!	!	!	!	!	!	!LO:TX:a:t=P:problem=nuta poprawiona przez głównego skryptora; przed poprawieniem był dźwięk 8G#\	!	!	!	!	!	!	!	!	!
!	!	!	!	!	!	!LO:DY:b	!	!	!	!	!	!	!	!	!	!
8E/	.	.	.	.	.	ff	8E\	.	8E/	.	.	.	.	.	.	.
!	!	!	!	!	!	!	!LO:TX:a:t=P:problem=nuta poprawiona przez głównego skryptora; przed poprawieniem był dźwięk 8A\	!	!	!	!	!	!	!	!	!
8F#/	.	4ff# 4dd/	.	.	.	.	8F#\	.	8F#/	.	4dd 4d^^>/	.	.	4ff# 4a^^>/	.	.
!	!	!	!	!	!	!	!LO:TX:a:t=P:problem=nuta poprawiona przez głównego skryptora; przed poprawieniem był dźwięk 8B\	!	!	!	!	!	!	!	!	!
8G#X/J	.	.	.	.	.	.	8G#X\J	.	8G#X/J	.	.	.	.	.	.	.
*	*	*	*	*	*	*	*	*	*	*	*v	*v	*	*	*	*
*	*	*	*	*	*	*	*	*	*	*	*	*	*v	*v	*
=24	=24	=24	=24	=24	=24	=24	=24	=24	=24	=24	=24	=24	=24	=24
8A/L	4AA\	2ee 2cc#/	2rAryy	.	4A\	.	8A\L	.	8A/L	.	2cc#^^\	.	2ee 2a/	.
8B/	.	.	.	.	.	.	8B\	.	8B/	.	.	.	.	.
8c#/	4rGG	.	.	.	4r	.	8c#\	.	8c#/	.	.	.	.	.
8d/J	.	.	.	.	.	.	8d\J	.	8d/J	.	.	.	.	.
*	*	*	*	*	*	*	*clefC4	*	*	*	*	*	*	*
2ryy	2rAA	4dd 4b/	8e\L	.	2r	.	8e\L	.	8e\L	.	4.b\	.	4.dd\	.
.	.	.	8f#\	.	.	.	8f#\	.	8f#\	.	.	.	.	.
.	.	4cc#/	8g#X\	.	.	.	8g#X\	.	8g#X\	.	.	.	.	.
.	.	.	8a\J	.	.	.	8a\J	.	8a\J	.	8a\	.	8cc#\	.
*v	*v	*	*	*	*	*	*	*	*	*	*	*	*	*
=25	=25	=25	=25	=25	=25	=25	=25	=25	=25	=25	=25	=25	=25
1r	2b 2a/	8re	.	1r	.	8r	.	8r	.	2a 2f#^^>/	.	2b^^>\	.
.	.	8d\L	.	.	.	8d\L	.	8d\L	.	.	.	.	.
.	.	8c#\	.	.	.	8c#\	.	8c#\	.	.	.	.	.
.	.	8B\J	.	.	.	8B\J	.	8B\J	.	.	.	.	.
.	4b 4g#/	8e\L	.	.	.	8e\L	.	8e\L	.	2g#X^^>/	.	(>4b^^>\	.
.	.	8f#\	.	.	.	8f#\	.	8f#\	.	.	.	.	.
.	4ee 4g#/	8e\	.	.	.	8e\	.	8e\	.	.	.	4ee\)	.
.	.	8d\J	.	.	.	8d\J	.	8d\J	.	.	.	.	.
!!LO:PB:g=original
=26	=26	=26	=26	=26	=26	=26	=26	=26	=26	=26	=26	=26	=26
*^	*	*	*	*	*	*	*	*	*	*	*	*	*
8c#\L	1rGG	2ee/	1a	.	1r	.	8c#\L	.	8c#\L	.	2a/	.	2ee\	.
8d\	.	.	.	.	.	.	8d\	.	8d\	.	.	.	.	.
8c#\	.	.	.	.	.	.	8c#\	.	8c#\	.	.	.	.	.
8B\J	.	.	.	.	.	.	8B\J	.	8B\J	.	.	.	.	.
!	!	!LO:N:vis=1	!	!	!	!	!	!	!	!	!	!	!	!
8A/L	.	2rdd	.	.	.	.	8A/L	.	8A/L	.	2r	.	8cc#\	.
8Gn/	.	.	.	.	.	.	8Gn/	.	8Gn/	.	.	.	8r	.
!	!	!	!	!	!	!LO:DY:b	!	!	!	!	!	!	!	!
8F#/	.	.	.	.	.	mf	8F#/	.	8F#/	.	.	.	4a/	.
8E/J	.	.	.	.	.	.	8E/J	.	8E/J	.	.	.	.	.
=27	=27	=27	=27	=27	=27	=27	=27	=27	=27	=27	=27	=27	=27	=27
1F#	1r	2dd/	1d	.	4F#\	.	4F#/	.	4F#/	.	1r	.	8dd^>\L	.
.	.	.	.	.	.	.	.	.	.	.	.	.	8ccn\	.
.	.	.	.	.	4r	.	4r	.	4r	.	.	.	8a\	.
.	.	.	.	.	.	.	.	.	.	.	.	.	8b\J	.
.	.	4a/	.	.	2r	.	2r	.	2r	.	.	.	8cc\L	.
.	.	.	.	.	.	.	.	.	.	.	.	.	8a\	.
.	.	4ccn/	.	.	.	.	.	.	.	.	.	.	8dd\	.
.	.	.	.	.	.	.	.	.	.	.	.	.	8cc\J	.
=28	=28	=28	=28	=28	=28	=28	=28	=28	=28	=28	=28	=28	=28	=28
!	!	!LO:TX:a:t=P:problem=takt poprawiany przez głównego skryptora; przed poprawieniem były dźwięki 2g\ i 2d\	!	!	!	!	!	!	!	!	!	!	!	!
1G	1rGG	1b	1d	.	4G\	.	4G/	.	8gL 8G^>\	.	8gnL 8B^</	.	4b\	.
.	.	.	.	.	.	.	.	.	8fn\	.	8fn/	.	.	.
.	.	.	.	.	4r	.	4r	.	8d\	.	8d/	.	4r	.
.	.	.	.	.	.	.	.	.	8e\J	.	8e/J	.	.	.
.	.	.	.	.	2r	.	2r	.	4fn\	.	8a/L	.	2r	.
.	.	.	.	.	.	.	.	.	.	.	8e/	.	.	.
.	.	.	.	.	.	.	.	.	4d\	.	8a/	.	.	.
.	.	.	.	.	.	.	.	.	.	.	8g/J	.	.	.
=29	=29	=29	=29	=29	=29	=29	=29	=29	=29	=29	=29	=29	=29	=29
1G#X	1r	2ee/	1e	.	4G#X\	.	8eL 8G#X^>\	.	1ryy	.	1ryy	.	8e^</L	.
.	.	.	.	.	.	.	8d\	.	.	.	.	.	8d/	.
.	.	.	.	.	4r	.	8B\	.	.	.	.	.	8B/	.
.	.	.	.	.	.	.	8c#X\J	.	.	.	.	.	8c#X/J	.
.	.	4b/	.	.	2r	.	8d\L	.	.	.	.	.	8d/L	.
.	.	.	.	.	.	.	8B\	.	.	.	.	.	8B/	.
.	.	4dd/	.	.	.	.	8e\	.	.	.	.	.	8e/	.
!LO:TX:a:t=(x)	!	!	!	!	!	!	!	!	!	!	!	!	!	!
.	.	.	.	.	.	.	8d\J	.	.	.	.	.	8d/J	.
=30	=30	=30	=30	=30	=30	=30	=30	=30	=30	=30	=30	=30	=30	=30
!LO:TX:a:t=(x)	!	!	!	!	!	!	!	!	!	!	!	!	!	!
!LO:TX:b:t=P:problem=takt poprawiany przez głównego skryptora; dźwięki sprzed poprawki nieczytelne	!	!	!	!	!	!	!	!	!	!	!	!	!	!
8B/L	1rGG	2cc#/	2e\	.	4A\	.	8c#\L	.	8c#/L	.	2ryy	.	8c#/	.
8d/	.	.	.	.	.	.	8d\	.	8d/	.	.	.	8r	.
8c#/	.	.	.	.	4r	.	8c#\	.	8c#/	.	.	.	4r	.
8B/J	.	.	.	.	.	.	8B\J	.	8B/J	.	.	.	.	.
!	!	!	!	!	!	!	!	!	!LO:N:vis=4	!	!	!	!	!
8A/L	.	4r	2rAyy	.	2r	.	8A/L	.	8A/	.	4ryy	.	4r	.
!	!	!	!	!	!	!	!	!	!LO:N:vis=4	!	!	!	!	!
8G/	.	.	.	.	.	.	8G/	.	8G/	.	.	.	.	.
8F#/	.	4a/	.	.	.	.	8F#/	.	4F#/	.	4a/	.	4a/	.
8E/J	.	.	.	.	.	.	8E/J	.	.	.	.	.	.	.
*	*	*v	*v	*	*	*	*	*	*	*	*	*	*	*
*	*	*	*	*	*	*clefF4	*	*	*	*	*	*	*
=31	=31	=31	=31	=31	=31	=31	=31	=31	=31	=31	=31	=31	=31
*	*	*	*	*	*	*	*	*tremolo	*	*	*	*	*
*	*	*	*	*	*	*	*	*	*	*tremolo	*	*	*
*	*	*	*	*	*	*	*	*	*	*	*	*tremolo	*
!	!	!	!	!	!LO:DY:rj	!	!LO:DY:rj	!	!LO:DY:rj	!	!	!	!LO:DY:rj
2A 2F# 2D/	2DD\	2aa 2ff# 2dd 2a/	fff	2D^^>\	fff	2A 2D^^>\	fff	16dd 16f#^^>\LL	fff	16ff# 16dd^^>\LL	fff	16aa 16a^^>\LL	fff
.	.	.	.	.	.	.	.	16dd 16f#^^>\	.	16ff# 16dd^^>\	.	16aa 16a^^>\	.
.	.	.	.	.	.	.	.	16dd 16f#^^>\	.	16ff# 16dd^^>\	.	16aa 16a^^>\	.
.	.	.	.	.	.	.	.	16dd 16f#^^>\	.	16ff# 16dd^^>\	.	16aa 16a^^>\	.
.	.	.	.	.	.	.	.	16dd 16f#^^>\	.	16ff# 16dd^^>\	.	16aa 16a^^>\	.
.	.	.	.	.	.	.	.	16dd 16f#^^>\	.	16ff# 16dd^^>\	.	16aa 16a^^>\	.
.	.	.	.	.	.	.	.	16dd 16f#^^>\	.	16ff# 16dd^^>\	.	16aa 16a^^>\	.
.	.	.	.	.	.	.	.	16dd 16f#^^>\JJ	.	16ff# 16dd^^>\JJ	.	16aa 16a^^>\JJ	.
4c# 4A 4E/	4EE\	4ggn 4ee 4a/	.	4E^^>\	.	4E^^>\	.	16cc#^^>\LL	.	16ee 16a^^>\LL	.	16ggn 16a^^>\LL	.
.	.	.	.	.	.	.	.	16cc#^^\	.	16ee 16a^^\	.	16ggn 16a^^>\	.
.	.	.	.	.	.	.	.	16cc#^^\	.	16ee 16a^^\	.	16ggn 16a^^>\	.
.	.	.	.	.	.	.	.	16cc#^^\JJ	.	16ee 16a^^\JJ	.	16ggn 16a^^>\JJ	.
4d 4A 4F#/	4FF#\	4ff# 4dd 4a/	.	4F#^^>\	.	4F#^^>\	.	16dd^^>\LL	.	16dd 16d^^>/LL	.	16ff# 16a^^>\LL	.
.	.	.	.	.	.	.	.	16dd^^\	.	16dd 16d^^/	.	16ff# 16a^^>\	.
.	.	.	.	.	.	.	.	16dd^^\	.	16dd 16d^^/	.	16ff# 16a^^>\	.
.	.	.	.	.	.	.	.	16dd^^\JJ	.	16dd 16d^^/JJ	.	16ff# 16a^^>\JJ	.
=32	=32	=32	=32	=32	=32	=32	=32	=32	=32	=32	=32	=32	=32
*	*	*^	*	*	*	*	*	*	*	*	*	*	*
1d	4G 4GG\	4ee/	[>2dd 2b\	.	4Gn^^>\	.	4Gn^^>\	.	16b 16d^^>\LL	.	16dd 16d^^>/LL	.	16ee^^>\LL	.
.	.	.	.	.	.	.	.	.	16b 16d^^>\	.	16dd 16d^^>/	.	16ee^^>\	.
.	.	.	.	.	.	.	.	.	16b 16d^^>\	.	16dd 16d^^>/	.	16ee^^>\	.
.	.	.	.	.	.	.	.	.	16b 16d^^>\JJ	.	16dd 16d^^>/JJ	.	16ee^^>\JJ	.
.	4E 4EE\	4gg/	.	.	4E^^>\	.	4E^^>\	.	16b 16d^^>\LL	.	16dd 16d^^>/LL	.	16ff#^^>\LL	.
.	.	.	.	.	.	.	.	.	16b 16d^^>\	.	16dd 16d^^>/	.	16ff#^^>\	.
.	.	.	.	.	.	.	.	.	16b 16d^^>\	.	16dd 16d^^>/	.	16ff#^^>\	.
.	.	.	.	.	.	.	.	.	16b 16d^^>\JJ	.	16dd 16d^^>/JJ	.	16ff#^^>\JJ	.
.	4F# 4FF#\	4ff#/	4dd_> 4a\	.	4F#^^>\	.	4F#^^>\	.	16a 16d^^>\LL	.	16dd 16d^^>/LL	.	16ee^^>\LL	.
.	.	.	.	.	.	.	.	.	16a 16d^^>\	.	16dd 16d^^>/	.	16ee^^>\	.
.	.	.	.	.	.	.	.	.	16a 16d^^>\	.	16dd 16d^^>/	.	16ee^^>\	.
.	.	.	.	.	.	.	.	.	16a 16d^^>\JJ	.	16dd 16d^^>/JJ	.	16ee^^>\JJ	.
.	4G 4GG\	4ee/	4dd] 4b\	.	4G^^>\	.	4G^^>\	.	16b 16d^^>\LL	.	16dd 16d^^>/LL	.	16dd^^>\LL	.
.	.	.	.	.	.	.	.	.	16b 16d^^>\	.	16dd 16d^^>/	.	16dd^^>\	.
.	.	.	.	.	.	.	.	.	16b 16d^^>\	.	16dd 16d^^>/	.	16dd^^>\	.
.	.	.	.	.	.	.	.	.	16b 16d^^>\JJ	.	16dd 16d^^>/JJ	.	16dd^^>\JJ	.
*	*	*	*	*	*	*	*	*	*	*	*	*	*Xtremolo	*
*	*	*	*	*	*	*	*	*	*	*	*Xtremolo	*	*	*
*	*	*	*	*	*	*	*	*	*Xtremolo	*	*	*	*	*
*v	*v	*	*	*	*	*	*	*	*	*	*	*	*	*
!!LO:LB:g=original
=33	=33	=33	=33	=33	=33	=33	=33	=33	=33	=33	=33	=33	=33
2A 2AA\	2.ff# 2.dd/	1a	.	2A\	.	2A\	.	8aL 8d\	.	8ff#L 8a 8d/	.	8ff#\L	.
.	.	.	.	.	.	.	.	8dd\	.	8dd/	.	8dd\	.
.	.	.	.	.	.	.	.	8a\	.	8a/	.	8a\	.
.	.	.	.	.	.	.	.	8f#\J	.	8f#/J	.	8dd\J	.
2A 2AA\	.	.	.	4A\	.	4A\	.	4a\	.	4a/	.	4ff#\	.
.	4ee 4cc#/	.	.	4A\	.	4A\	.	4a 4e 4A\	.	4cc# 4e/	.	4ee 4a\	.
*	*v	*v	*	*	*	*	*	*	*	*	*	*	*
=34	=34	=34	=34	=34	=34	=34	=34	=34	=34	=34	=34	=34
*^	*	*	*	*	*	*	*	*	*	*	*	*
8d/L	4D\	8dd/L	.	8d\	.	8d\L	.	8aL 8d/	.	8ddL 8d/	.	8ddL 8d/	.
8A/	.	8a/	.	8r	.	8A\	.	8A/	.	8a/	.	8a/	.
8F#/	4r	8f#/	.	4r	.	8F#\	.	8F#/	.	8f#/	.	8f#/	.
8A/J	.	8a/J	.	.	.	8A\J	.	8A/J	.	8a/J	.	8a/J	.
8d>\L	2rGG	8dd\L	.	2r	.	8d\	.	8d\L	.	8dd\L	.	8dd\L	.
8e>\	.	8ee\	.	.	.	8r	.	8e\	.	8ee\	.	8ee\	.
8f#>\	.	8ff#\	.	.	.	4r	.	8f#\	.	8ff#\	.	8ff#\	.
8a>\J	.	8aa\J	.	.	.	.	.	8a\J	.	8aa\J	.	8aa\J	.
=35	=35	=35	=35	=35	=35	=35	=35	=35	=35	=35	=35	=35	=35
*	*	*	*	*2\right	*	*	*	*	*	*	*	*	*
!	!	!	!	!	!	!	!	!	!	!LO:TX:a:t=P:problem=nuta poprawiona przez głównego skryptora; przed poprawieniem było 2cc#\	!	!LO:TX:a:t=P:problem=takt poprawiony przez głównego skryptora; przed poprawieniem było 2ee^>\ 2cc^>\ 2g^>\; 4ee^>\ 4b^>\ 4g#^>\; 4ee^>\ 4cc^>\ 4a^>\	!
!	!	!	!	!LO:TX:a:i:t=Col Vcla	!	!	!	!	!	!	!	!LO:TX:a:t=V. 1mo	!
2e 2A/	2AA\	2ee 2cc# 2a/	.	2A\	.	2A\	.	2a^^>\	.	2ee 2a\	.	2ee 2cc#X^^>\	.
4e 4B 4E/	4EE\	4ee 4b 4g#X/	.	4E\	.	4E\	.	4b 4g#X^^>\	.	4b 4g#X/	.	4ee 4b^^>\	.
4c# 4A 4E/	4AA\	4ee 4a 4gn/	.	4A\	.	4A\	.	4a 4gn^^>\	.	4a 4gn/	.	4ee 4cc#^^>\	.
=36	=36	=36	=36	=36	=36	=36	=36	=36	=36	=36	=36	=36	=36
*	*	*	*	*	*	*^	*	*	*	*	*	*	*
8dL 8D/	4DD\	8ff#L 8f#/	.	8D\	.	8d\L	4D\	.	8f#/L	.	8f#/L	.	8ff#L 8a 8d/	.
8A/	.	8a/	.	8r	.	8A\	.	.	8A/	.	8a/	.	8a/	.
8F#/	4r	8f#/	.	4r	.	8F#\	4F#\	.	8F#/	.	8f#/	.	8f#/	.
8A/J	.	8a/J	.	.	.	8A\J	.	.	8A/J	.	8a/J	.	8a/J	.
!	!	!	!	!LO:N:vis=1	!	!	!	!	!	!	!	!	!	!
8d>\L	2rGG	8dd\L	.	2r	.	8d\	2ryy	.	8d\L	.	8dd\L	.	8dd\L	.
8e>\	.	8ee\	.	.	.	8r	.	.	8e\	.	8ee\	.	8ee\	.
!	!	!	!	!	!	!LO:TX:a:t=P:problem=nuta poprawiona przez głównego skryptora; przed poprawieniem było 8d\ i 4r	!	!	!	!	!	!	!	!
8f#>\	.	8ff#\	.	.	.	4r	.	.	8f#\	.	8ff#\	.	8ff#\	.
8a>\J	.	8aa\J	.	.	.	.	.	.	8a\J	.	8aa\J	.	8aa\J	.
*	*	*	*	*	*	*v	*v	*	*	*	*	*	*	*
=37	=37	=37	=37	=37	=37	=37	=37	=37	=37	=37	=37	=37	=37
!	!	!	!	!LO:TX:a:i:t=Col Vcla	!	!	!	!	!	!	!	!	!
!	!	!	!	!	!	!	!	!	!	!	!	!LO:TX:a:t=P:problem=takt poprawiany przez głównego skryptora; przed poprawieniem było 2ee\ 2cc\ 2a\; 4ee\ 4b\ 4g#; 4ee\ 4b\ 4a\	!
2e 2A/	2AA\	2ee 2cc# 2a/	.	2A\	.	2A\	.	2a^^>\	.	2ee 2a^^>/	.	2ee 2cc#^^>\	.
4e 4B 4E/	4EE\	4ee 4b 4g#X/	.	4E\	.	4E\	.	4b 4g#X^^>\	.	4b 4g#X^^>/	.	4ee 4b\	.
4c# 4A 4E/	4AA\	4ee 4a 4gn/	.	4A\	.	4A\	.	4a 4gn^^>\	.	4a 4gn^^>/	.	4ee 4cc#\	.
=38	=38	=38	=38	=38	=38	=38	=38	=38	=38	=38	=38	=38	=38
*	*^	*	*	*	*	*	*	*	*	*	*	*	*
!	!	!	!	!	!	!	!	!	!LO:TX:a:t=P:problem=nuta poprawiona przez głównego skryptora; przed poprawieniem było 2c#/	!	!	!	!	!
!LO:TX:a:t=P:problem=takt poprawiany przez głównego skryptora; przed poprawieniem w tej warstwie były dźwięki 4.F#/ i chyba 8a/ (źródło nieczytelne)	!	!	!	!	!	!	!	!	!	!	!	!	!	!
1d	4D 4DD/	4DD\	4.ff# 4.dd 4.f#/	.	4D^^>\	.	4D^^>\	.	4a 4f#^^>\	.	4.dd 4.f#^^>/	.	4.ff# 4.a 4.d^^>/	.
.	4E/	4EE\	.	.	4E^^>\	.	4E^^>\	.	4E^^>/	.	.	.	.	.
.	.	.	8gg 8dd 8g/	.	.	.	.	.	.	.	8dd 8d/	.	8gg 8a 8d/	.
.	4F#/	4FF#\	4aa 4dd 4a/	.	4F#^^>\	.	4F#^^>\	.	4F#^^>/	.	4dd 4d/	.	4aa 4a 4d/	.
.	4G/	4GG\	4bb 4dd 4b/	.	4G^^>\	.	4G^^>\	.	4G^^>/	.	4dd 4d/	.	4bb 4b 4d/	.
=39	=39	=39	=39	=39	=39	=39	=39	=39	=39	=39	=39	=39	=39	=39
*	*	*	*^	*	*	*	*	*	*	*	*^	*	*	*
4A/	1A	4AA\	4.cc#/	1a	.	4A^^>\	.	4A^^>\	.	4A^^>/	.	4.a^^>/	4.a\	.	4.b 4.e^^>/	.
4B/	.	4BB\	.	.	.	4B^^>\	.	4B^^>\	.	4B^^>/	.	.	.	.	.	.
.	.	.	8dd/	.	.	.	.	.	.	.	.	8a/	8a\	.	8dd 8e/	.
4c#/	.	4C#\	4ee/	.	.	4c#^^>\	.	4c#^^>\	.	4c#^^>/	.	4a/	4a\	.	4ee 4a/	.
4d/	.	4D\	4ff#/	.	.	4d\	.	4d\	.	4d^^>\	.	4dd 4f#/	4rFyy	.	4ff# 4a 4d/	.
*v	*v	*v	*	*	*	*	*	*	*	*	*	*v	*v	*	*	*
*	*v	*v	*	*	*	*	*	*	*	*	*	*	*
!!LO:PB:g=original
=40	=40	=40	=40	=40	=40	=40	=40	=40	=40	=40	=40	=40
!	!	!	!	!	!	!	!	!	!	!	!LO:TX:a:t=P:problem=w źródle ^^ zapisane ołówkiem	!
1ryy	1ryy	.	4e\	.	4e\	.	4e\	.	4g/	.	[>4ff#^^>\	.
.	.	.	4f#\	.	4B\	.	4f#\	.	4a/	.	16ff#\LL]	.
.	.	.	.	.	.	.	.	.	.	.	16ee\	.
.	.	.	.	.	.	.	.	.	.	.	16dd\	.
.	.	.	.	.	.	.	.	.	.	.	16cc#\JJ	.
.	.	.	4e\	.	4e\	.	4g\	.	4b/	.	4b\	.
!	!	!	!	!	!LO:TX:a:t=P:problem=nuta poprawiona przez głównego skryptora; przed poprawieniem był dźwięk 4e\	!	!	!	!	!	!	!
.	.	.	4E\	.	4E\	.	4f#\	.	4ee 4b 4e/	.	4gg 4b 4e\	.
=41	=41	=41	=41	=41	=41	=41	=41	=41	=41	=41	=41	=41
!	!	!	!LO:TX:a:i:t=ralent	!	!LO:TX:a:i:t=ralent	!	!	!	!LO:TX:a:i:t=ralent	!	!	!
1ryy	1ryy	.	2A^^>\	.	2A^^\	.	2a^^>\	.	2dd 2f#^^>/	.	2ff# 2a^^>\	.
.	.	.	2AA/	.	2AA/	.	2a 2e 2A\	.	2a 2g^^>/	.	2ee 2cc#^^>\	.
=42	=42	=42	=42	=42	=42	=42	=42	=42	=42	=42	=42	=42
1ryy	1ryy	.	1D;>	.	1D;>	.	1d 1A^<;>	.	1a 1f#<^;>	.	1dd 1d^<;>	.
==	==	==	==	==	==	==	==	==	==	==	==	==
*-	*-	*-	*-	*-	*-	*-	*-	*-	*-	*-	*-	*-
!!!system-decoration: [(g1)][(s6,s7)]
!!!RDF**kern: > = above
!!!RDF**kern: < = below
!!!EED: Antoni Szymański
!!!EEV: 2021-04-17
!!!ENC: Marcin Jachim
!!!END: 2021-04-02
!!!YEC: Copyright 2022 Narodowy Instytut Fryderyka Chopina (https://polishscores.org)
!!!YEM: License CC-BY-4.0 (https://creativecommons.org/licenses/by/4.0)
